X: 321
T: The Health
%R: reel
B: "The Compleat Country Dancing-Master" printed by John Walsh, London ca. 1740
S: 6: CCDM2 http://imslp.org/wiki/The_Compleat_Country_Dancing-Master_(Various) V.2 (176)
Z: 2013 John Chambers <jc:trillian.mit.edu>
N: Repeats added to satisfy the "Each strain twice" instruction.
M: C|
L: 1/8
K: C
% - - - - - - - - - - - - - - - - - - - - - - - - -
|:\
c2cc c2e2 | c4 G4 | e2dc d2G2 | e2dc d2ef |\
g3a gagf | e4 c3d | e^fg2 f3g | g4 :|
|:\
f2ff f2a2 | f3g a4 | g2fe fedc | d4 G4 |\
e2dc d2G2 | e2dc d2ef | g2ag f2e2 | d4 c4 :|
% - - - - - - - - - - - - - - - - - - - - - - - - -
%%center Each strain twice
%%begintext align
%% The 1st and 2d Cu. lead forward and back and turn
%% single then turn your Partners then the 1st Cu.
%% cast off .| The 2d Cu. lead up and do the same :| hands
%% across round then back again and turn single :|
%% The 1st Cu  Figure in cast off and turn Hands :|
%%endtext
%%sep 1 8 500

%%sep 1 1 500
%%sep 1 1 500
